desk-lamp-off.svg

<svg fill="currentColor" viewBox="0 0 24 24"><path d="m9 10.87-.2.26c.13.27.2.57.2.87a2 2 0 0 1-.47 1.28L13 20h4v2H7v-2h3.62l-4.04-6.05A2 2 0 0 1 5 12c0-1.1.9-2 2-2h.14l.39-.58L1.11 3l1.28-1.27 19.72 19.73-1.27 1.27zM18.33 7l-1.66 2.5c.68.45 1.62.27 2.08-.42S19 7.46 18.33 7m-8.76-.63L11 7.82l1-1.45c-.22 1.68.75 3.52 2.45 4.63l4.44-6.63c-1.69-1.13-3.77-1.33-5.24-.5L10.85 2 9.18 4.5l1.14.75z"/></svg>

<svg  viewBox="0 0 24 24" fill="currentColor"><path  d="M9 10.87L8.8 11.13C8.93 11.4 9 11.7 9 12C9 12.47 8.83 12.92 8.53 13.28L13 20H17V22H7V20H10.62L6.58 13.95C5.66 13.75 5 12.94 5 12C5 10.9 5.9 10 7 10H7.14L7.53 9.42L1.11 3L2.39 1.73L22.11 21.46L20.84 22.73L9 10.87M18.33 7L16.67 9.5C17.35 9.95 18.29 9.77 18.75 9.08S19 7.46 18.33 7M9.57 6.37L11 7.82L12 6.37C11.78 8.05 12.75 9.89 14.45 11L18.89 4.37C17.2 3.24 15.12 3.04 13.65 3.87L10.85 2L9.18 4.5L10.32 5.25L9.57 6.37Z"/></svg>
